X:49
T:Killer Whale
C:Debbie Scott
M:4/4
K:D dorian
A,C |: D2 FE DCA,C | DEFD G3 (G,|A,2) EDCA,A,2 | EFED CA,A,C | \
D2 FEDC A,C | DEFE G3 B | cdeg aged | (3cBA GE D2 z2 :| \
Ac |: defe dcAc | defe dc B2 | defe dcBd | (cBc)d egec | \
defe dcAc | defe dc B2 | (cBc)d eged | cAGE D2 z2 :|
